public/piggy-bank.svg

<svg xmlns="http://www.w3.org/2000/svg" width="24" height="24" viewBox="0 0 24 24" fill="none" stroke="currentColor" stroke-width="2" stroke-linecap="round" stroke-linejoin="round" class="lucide lucide-piggy-bank"><path d="M19 5c-1.5 0-2.8 1.4-3 2-3.5-1.5-11-.3-11 5 0 1.8 0 3 2 4.5V20h4v-2h3v2h4v-4c1-.5 1.7-1 2-2h2v-4h-2c0-1-.5-1.5-1-2V5z"/><path d="M2 9v1c0 1.1.9 2 2 2h1"/><path d="M16 11h.01"/></svg>

<svg width="24" height="24" viewBox="0 0 24 24" fill="none" xmlns="http://www.w3.org/2000/svg">
<path d="M19 5C17.5 5 16.2 6.4 16 7C12.5 5.5 5 6.7 5 12C5 13.8 5 15 7 16.5V20H11V18H14V20H18V16C19 15.5 19.7 15 20 14H22V10H20C20 9 19.5 8.5 19 8V5Z" stroke="#B8B8B8" stroke-width="2" stroke-linecap="round" stroke-linejoin="round"/>
<path d="M2 9V10C2 11.1 2.9 12 4 12H5" stroke="#B8B8B8" stroke-width="2" stroke-linecap="round" stroke-linejoin="round"/>
<path d="M16 11H16.01" stroke="#B8B8B8" stroke-width="2" stroke-linecap="round" stroke-linejoin="round"/>
</svg>
